X:158
M:2/4
L:1/8
K:A
|: ecAe | fdBf | ecAc | BG E2 | ecAe | fdBd | cABG | A2 [A,2A2] :|

